fs/contract_down_left_16_filled.svg

<svg viewBox="0 0 16 16" fill="none" xmlns="http://www.w3.org/2000/svg" height="1em" width="1em">
  <path d="M4.5 3C3.67157 3 3 3.67157 3 4.5V8.00024H6.23077C7.20789 8.00024 8 8.79236 8 9.76947V13H11.5C12.3284 13 13 12.3284 13 11.5V9.26923C13 8.99309 13.2239 8.76923 13.5 8.76923C13.7761 8.76923 14 8.99309 14 9.26923V11.5C14 12.8807 12.8807 14 11.5 14L4.5 14C3.11929 14 2 12.8807 2 11.5V4.5C2 3.11929 3.11929 2 4.5 2H6.73077C7.00691 2 7.23077 2.22386 7.23077 2.5C7.23077 2.77614 7.00691 3 6.73077 3H4.5ZM13.5 5.99982H10.7075L13.8536 2.8538C14.0488 2.65854 14.0488 2.34195 13.8536 2.14669C13.6583 1.95143 13.3417 1.95143 13.1464 2.14669L10 5.29314V2.5C10 2.22386 9.77614 2 9.5 2C9.22386 2 9 2.22386 9 2.5V6.49989C8.99991 6.62797 9.04873 6.75608 9.14645 6.8538C9.24935 6.9567 9.38595 7.00538 9.52073 6.99982H13.5C13.7761 6.99982 14 6.77596 14 6.49982C14 6.22367 13.7761 5.99982 13.5 5.99982Z" fill="#212121"/>
</svg>

<svg viewBox="0 0 16 16" fill="none" xmlns="http://www.w3.org/2000/svg" height="1em" width="1em">
  <path d="M4.5 3A1.5 1.5 0 0 0 3 4.5V8h3.23C7.209 8 8 8.792 8 9.77V13h3.5a1.5 1.5 0 0 0 1.5-1.5V9.27a.5.5 0 0 1 1 0v2.23a2.5 2.5 0 0 1-2.5 2.5h-7A2.5 2.5 0 0 1 2 11.5v-7A2.5 2.5 0 0 1 4.5 2h2.23a.5.5 0 0 1 0 1H4.5Zm9 3h-2.793l3.147-3.146a.5.5 0 0 0-.708-.707L10 5.293V2.5a.5.5 0 0 0-1 0v4a.498.498 0 0 0 .52.5h3.98a.5.5 0 0 0 0-1Z" fill="#212121"/>
</svg>
